src/home/img/antispam.svg

<svg height="76" viewBox="0 0 70 76" width="70" xmlns="http://www.w3.org/2000/svg" xmlns:xlink="http://www.w3.org/1999/xlink"><linearGradient id="a" x1="50%" x2="50%" y1="0%" y2="100%"><stop offset="0" stop-color="#3f6abc"/><stop offset="1" stop-color="#1851be"/></linearGradient><filter id="b" height="107.6%" width="108.2%" x="-4.1%" y="-3.8%"><feGaussianBlur in="SourceGraphic" stdDeviation=".65"/></filter><linearGradient id="c" x1="0%" x2="0%" y1="0%" y2="100%"><stop offset="0" stop-color="#fff"/><stop offset="1" stop-color="#aec3eb"/></linearGradient><filter id="d" height="108.5%" width="108.5%" x="-4.2%" y="-4.2%"><feGaussianBlur in="SourceGraphic" stdDeviation=".65"/></filter><mask id="e" fill="#fff"><path d="m.5 13.84c0-7.367 5.973-13.34 13.34-13.34h48.32c7.367 0 13.34 5.973 13.34 13.34v48.32c0 7.367-5.973 13.34-13.34 13.34h-48.32c-7.367 0-13.34-5.973-13.34-13.34z" fill="#fff" fill-rule="evenodd"/></mask><g fill="none" fill-rule="evenodd" transform="translate(-3 1)"><path d="m.5 13.84c0-7.367 5.973-13.34 13.34-13.34h48.32c7.367 0 13.34 5.973 13.34 13.34v48.32c0 7.367-5.973 13.34-13.34 13.34h-48.32c-7.367 0-13.34-5.973-13.34-13.34z" mask="url(#e)"/><path d="m.5 13.84c0-7.367 5.973-13.34 13.34-13.34h48.32c7.367 0 13.34 5.973 13.34 13.34v48.32c0 7.367-5.973 13.34-13.34 13.34h-48.32c-7.367 0-13.34-5.973-13.34-13.34z"/><path d="m.5 13.84c0-7.367 5.973-13.34 13.34-13.34h48.32c7.367 0 13.34 5.973 13.34 13.34v48.32c0 7.367-5.973 13.34-13.34 13.34h-48.32c-7.367 0-13.34-5.973-13.34-13.34z"/><g fill-rule="nonzero" transform="translate(4)"><g fill="url(#a)" stroke="#fff" stroke-opacity=".01" stroke-width="1.68"><path d="m63.8208333 11.9313973-27.2-11.40736256c-1.6733631-.69871299-3.5541368-.69871299-5.2275 0l-27.19999997 11.40736256c-2.53583333 1.0551811-4.19333333 3.5505416-4.19333333 6.3168271 0 28.3045184 16.2208333 47.8681452 31.3791667 54.2277499 1.6716666.6987009 3.5558333.6987009 5.2275 0 12.1408333-5.0905356 31.3933333-22.6721332 31.3933333-54.2277499 0-2.7662855-1.6575-5.261646-4.1791667-6.3168271z" filter="url(#b)"/><path d="m63.8208333 12.9313973-27.2-11.40736256c-1.6733631-.69871298-3.5541368-.69871298-5.2275 0l-27.19999997 11.40736256c-2.53583333 1.0551811-4.19333333 3.5505416-4.19333333 6.3168271 0 28.3045184 16.2208333 47.8681452 31.3791667 54.2277499 1.6716666.6987009 3.5558333.6987009 5.2275 0 12.1408333-5.0905356 31.3933333-22.6721332 31.3933333-54.2277499 0-2.7662855-1.6575-5.261646-4.1791667-6.3168271z"/></g><g fill="url(#c)"><path d="m35 14c-12.7024919 0-23 10.2974153-23 23s10.2975081 23 23 23 23-10.2975081 23-23-10.2974153-23-23-23zm11.9738139 11.0262641c6.1031845 6.1031886 6.5276695 15.4315145 1.9281803 21.9737359l-23.9019942-23.9018243c6.546693-4.6025697 15.8739866-4.17165 21.9738139 1.9280884zm-23.9476278 23.9474468c-6.1031845-6.1031817-6.5276695-15.431497-1.9281803-21.9737109l23.9019942 23.9017971c-6.5465997 4.6025645-15.8739866 4.1717385-21.9738139-1.9280862z" filter="url(#d)"/><path d="m35 14c-12.7024919 0-23 10.2974153-23 23s10.2975081 23 23 23 23-10.2975081 23-23-10.2974153-23-23-23zm11.9738139 11.0262641c6.1031845 6.1031886 6.5276695 15.4315145 1.9281803 21.9737359l-23.9019942-23.9018243c6.546693-4.6025697 15.8739866-4.17165 21.9738139 1.9280884zm-23.9476278 23.9474468c-6.1031845-6.1031817-6.5276695-15.431497-1.9281803-21.9737109l23.9019942 23.9017971c-6.5465997 4.6025645-15.8739866 4.1717385-21.9738139-1.9280862z"/></g></g></g></svg>

<svg xmlns="http://www.w3.org/2000/svg" xmlns:xlink="http://www.w3.org/1999/xlink" width="70" height="76" viewBox="0 0 70 76">
  <defs>
    <path id="antispam-a" d="M0.5,13.84 C0.5,6.473 6.473,0.5 13.84,0.5 L62.16,0.5 C69.527,0.5 75.5,6.473 75.5,13.84 L75.5,62.16 C75.5,69.527 69.527,75.5 62.16,75.5 L13.84,75.5 C6.473,75.5 0.5,69.527 0.5,62.16 L0.5,13.84 Z"/>
    <linearGradient id="antispam-c" x1="50%" x2="50%" y1="0%" y2="100%">
      <stop offset="0%" stop-color="#3F6ABC"/>
      <stop offset="100%" stop-color="#1851BE"/>
    </linearGradient>
    <filter id="antispam-d" width="108.2%" height="107.6%" x="-4.1%" y="-3.8%" filterUnits="objectBoundingBox">
      <feGaussianBlur in="SourceGraphic" stdDeviation=".65"/>
    </filter>
    <linearGradient id="antispam-e" x1="0%" x2="0%" y1="0%" y2="100%">
      <stop offset="0%" stop-color="#FFF"/>
      <stop offset="100%" stop-color="#AEC3EB"/>
    </linearGradient>
    <filter id="antispam-f" width="108.5%" height="108.5%" x="-4.2%" y="-4.2%" filterUnits="objectBoundingBox">
      <feGaussianBlur in="SourceGraphic" stdDeviation=".65"/>
    </filter>
  </defs>
  <g fill="none" fill-rule="evenodd" transform="translate(-3 1)">
    <mask id="antispam-b" fill="#fff">
      <use xlink:href="#antispam-a"/>
    </mask>
    <path d="M0.5,13.84 C0.5,6.473 6.473,0.5 13.84,0.5 L62.16,0.5 C69.527,0.5 75.5,6.473 75.5,13.84 L75.5,62.16 C75.5,69.527 69.527,75.5 62.16,75.5 L13.84,75.5 C6.473,75.5 0.5,69.527 0.5,62.16 L0.5,13.84 Z" mask="url(#antispam-b)"/>
    <path d="M0.5,13.84 C0.5,6.473 6.473,0.5 13.84,0.5 L62.16,0.5 C69.527,0.5 75.5,6.473 75.5,13.84 L75.5,62.16 C75.5,69.527 69.527,75.5 62.16,75.5 L13.84,75.5 C6.473,75.5 0.5,69.527 0.5,62.16 L0.5,13.84 Z"/>
    <path d="M0.5,13.84 C0.5,6.473 6.473,0.5 13.84,0.5 L62.16,0.5 C69.527,0.5 75.5,6.473 75.5,13.84 L75.5,62.16 C75.5,69.527 69.527,75.5 62.16,75.5 L13.84,75.5 C6.473,75.5 0.5,69.527 0.5,62.16 L0.5,13.84 Z"/>
    <g fill-rule="nonzero" transform="translate(4)">
      <g fill="url(#antispam-c)" stroke="#FFF" stroke-opacity=".01" stroke-width="1.68">
        <path d="M63.8208333,11.9313973 L36.6208333,0.524034736 C34.9474702,-0.174678245 33.0666965,-0.174678245 31.3933333,0.524034736 L4.19333333,11.9313973 C1.6575,12.9865784 0,15.4819389 0,18.2482244 C0,46.5527428 16.2208333,66.1163696 31.3791667,72.4759743 C33.0508333,73.1746752 34.935,73.1746752 36.6066667,72.4759743 C48.7475,67.3854387 68,49.8038411 68,18.2482244 C68,15.4819389 66.3425,12.9865784 63.8208333,11.9313973 Z" filter="url(#antispam-d)"/>
        <path d="M63.8208333,12.9313973 L36.6208333,1.52403474 C34.9474702,0.825321755 33.0666965,0.825321755 31.3933333,1.52403474 L4.19333333,12.9313973 C1.6575,13.9865784 0,16.4819389 0,19.2482244 C0,47.5527428 16.2208333,67.1163696 31.3791667,73.4759743 C33.0508333,74.1746752 34.935,74.1746752 36.6066667,73.4759743 C48.7475,68.3854387 68,50.8038411 68,19.2482244 C68,16.4819389 66.3425,13.9865784 63.8208333,12.9313973 Z"/>
      </g>
      <path fill="url(#antispam-e)" d="M35,14 C22.2975081,14 12,24.2974153 12,37 C12,49.7025847 22.2975081,60 35,60 C47.7024919,60 58,49.7024919 58,37 C58,24.2975081 47.7025847,14 35,14 Z M46.9738139,25.0262641 C53.0769984,31.1294527 53.5014834,40.4577786 48.9019942,47 L25,23.0981757 C31.546693,18.495606 40.8739866,18.9265257 46.9738139,25.0262641 Z M23.0261861,48.9737109 C16.9230016,42.8705292 16.4985166,33.5422139 21.0980058,27 L45,50.9017971 C38.4534003,55.5043616 29.1260134,55.0735356 23.0261861,48.9737109 Z" filter="url(#antispam-f)"/>
      <path fill="url(#antispam-e)" d="M35,14 C22.2975081,14 12,24.2974153 12,37 C12,49.7025847 22.2975081,60 35,60 C47.7024919,60 58,49.7024919 58,37 C58,24.2975081 47.7025847,14 35,14 Z M46.9738139,25.0262641 C53.0769984,31.1294527 53.5014834,40.4577786 48.9019942,47 L25,23.0981757 C31.546693,18.495606 40.8739866,18.9265257 46.9738139,25.0262641 Z M23.0261861,48.9737109 C16.9230016,42.8705292 16.4985166,33.5422139 21.0980058,27 L45,50.9017971 C38.4534003,55.5043616 29.1260134,55.0735356 23.0261861,48.9737109 Z"/>
    </g>
  </g>
</svg>
